X: 6
T: Tralee Gaol
R: polka
M: 2/4
L: 1/8
K: Ador
|: eA Bd | e/f/e/d Bd | eA AB/A/ | G>A Bd |
eA AB/d/ | ed Bd | ea e/f/e/d | BA A2 :|
|: e2 ef/g/ | ae fe | d2 de/f/ | ge fd |
e>d ef/g/ | ae f/e/d/B/ | ea e/f/e/d/ | BA A2 :|


Tune 1113	Setting 14371

